!!!!SEGMENT: pl-sa--561-a-ix-41_rossini-gioachino--polonaise-de-l-opera-tancred.krn
!!!cenid: 18xx:358
!!!COM: Rossini, Gioachino
!!!COM-rismID: pe63766
!!!CDT: 1792/02/29-1868/11/13
!!!CNT: Italian
!!!OTL: Polonaise de l’opera Tancred
!!!PDT:
!!!AGN: Secular; Polonaise
!!!SMS-siglum: PL-SA
!!!SMS-shelfmark: 561/A IX 41
!!!SMS-shelfwork: W
!!!SMS-variant:
!!!SMS-altvar:
!!!NIFC-rismSourceID: 1001065432
!!!NIFC-rismChildID: 1001065432
!!!NIFC-islandoraID: none
!!!URL-pdf-islandora:
!!!URL-scan: https://bc.bdsandomierz.pl/dlibra/publication/1317/edition/1285/content @EN{Scan in the Sandomierz Diocese Digital Library} @PL{Skany w portalu Cyfrowa Biblioteka Diecezjalna w Sandomierzu}
!!!IIIF:
!!!ONB-nifc:
!!!AIN: 1 piano
!!!key:
**kern	**kern	**dynam
*part1	*part1	*part1
*staff2	*staff1	*
*Ipiano	*Iempty	*
*I"Piano Forto	*	*
*I'pf	*	*
*clefF4	*clefG2	*
*k[f#c#]	*k[f#c#]	*
*D:	*D:	*
*M3/4	*M3/4	*
*A,A1,B,B1,C,C1,D,D1	*	*
=1	=1	=1
*A	*A	*A
*2\right	*	*
*tremolo	*	*
!	!LO:TX:rj:t=Pollo&colon;	!
!	!	!LO:SIC:o:s=:v: 16,8,4,2,\right
8A\ 8F#\ 8D\L	4.a/	p
8A\ 8F#\ 8D\	.	.
8A\ 8F#\ 8D\	.	.
8A\ 8F#\ 8D\	16b/LL	.
.	16cc#/JJ	.
8A\ 8F#\ 8D\	8dd\L	.
8A\ 8F#\ 8D\J	8dd\J	.
=2	=2	=2
8A\ 8F#\ 8D\L	16ee\LL	.
.	16dd\	.
8A\ 8F#\ 8D\	16cc#\	.
.	16dd\JJ	.
8A\ 8F#\ 8D\	4a/	.
8A\ 8F#\ 8D\	.	.
8A\ 8F#\ 8D\	8r	.
8A\ 8F#\ 8D\J	8a/	.
=3	=3	=3
8A\ 8G\ 8E\ 8C#\L	4.a/	.
8A\ 8G\ 8E\ 8C#\	.	.
8A\ 8G\ 8E\ 8C#\	.	.
8A\ 8G\ 8E\ 8C#\	16b/LL	.
.	16cc#/JJ	.
8A\ 8G\ 8E\ 8C#\	8dd\L	.
8A\ 8G\ 8E\ 8C#\J	8dd#X\J	.
=4	=4	=4
8A\ 8G\ 8E\ 8C#\L	16dd#X\LL	.
.	16ee\	.
8A\ 8G\ 8E\ 8C#\	16ff#\	.
.	16ee\JJ	.
8A\ 8G\ 8E\ 8C#\	4a/	.
8A\ 8G\ 8E\ 8C#\	.	.
8A\ 8G\ 8E\ 8C#\	8r	.
8A\ 8G\ 8E\ 8C#\J	8a/	.
!!LO:LB:g=original
=5	=5	=5
8A\ 8F#\ 8D\L	4.a/	.
8A\ 8F#\ 8D\	.	.
8A\ 8F#\ 8D\	.	.
8A\ 8F#\ 8D\	16b/LL	.
.	16cc#/JJ	.
8A\ 8F#\ 8D\	8ddn\L	.
8A\ 8F#\ 8D\J	8ee\J	.
=6	=6	=6
.	16qqdd/LL	.
.	16qqee/JJ	.
8B\ 8F#\ 8D\ 8BB\L	8ff#\L	.
8B\ 8F#\ 8D\ 8BB\	8dd\J	.
8B\ 8F#\ 8D\ 8BB\	4.b\	.
8B\ 8F#\ 8D\ 8BB\	.	.
8B\ 8F#\ 8D\ 8BB\	.	.
8B\ 8F#\ 8D\ 8BB\J	8f#/	.
*Xtremolo	*	*
=7	=7	=7
8F#/ 8BB/ 8FF#/	4.dd\	.
8d\L 8B\ 8F#\	.	.
8d\ 8B\ 8F#\	.	.
!	!LO:SIC:o:s=:v:16\right:global	!
8d\J 8B\ 8F#\	16ee\LL	.
.	16dd\JJ	.
8e\L 8A#X\ 8F#\	8cc#\L	.
8e\J 8A#\ 8F#\	8ff#\J	.
=8	=8	=8
8d\L 8B\	8b\L	.
.	16qqdd/	.
8e\J 8A#X\ 8F#\	8cc#\J	.
4e\ 4A#\ 4F#\	4cc#\	.
8d\ 8B\	8b\	.
8r	8r	.
=9:||:	=9:||:	=9:||:
*B	*B	*B
*^	*	*
!	!	!LO:SIC:o:s=:v:p:	!
4c#/	2An\	4an/	p
8d/L	.	(8b/L	<
8e/J	.	8cc#/	.
4f#/	4A\	8dd/)	.
.	.	8ee/J	.
!!LO:LB:g=original
=10	=10	=10	=10
8g/L	4A\	(8ee\L	[
8f#/J	.	8ff#\J)	.
4e/	4G\	8gg'\L	.
.	.	(16gg\L	.
.	.	16ff#\JJ)	.
4rc	4rEEyy	(16ee\LL	.
.	.	16dd\	.
.	.	16cc#\	.
.	.	16b\JJ)	.
*v	*v	*	*
=11	=11	=11
*tremolo	*	*
8f#\ 8d\ 8A\L	4.a/	.
8f#\ 8d\ 8A\	.	.
8f#\ 8d\ 8A\	.	.
8f#\ 8d\ 8A\J	(16a/LL	.
.	16b/JJ)	.
*Xtremolo	*	*
8e\ 8c#\ 8A\	8a'/L	.
8e\ 8c#\ 8A\	8a'/J	.
=12	=12	=12
!	!LO:SIC:o:s=:v:fo:	!
8d\ 8A\ 8F#\ 8D\	8aa\L 8ff#'\	f
8rc	(16ff#\L 16dd\	.
.	16gg\JJ 16ee\)	.
*^	*	*
8F#/	8FF#/	8ff#\L 8dd'\	.
8rc	8rEEyy	8aa\ 8ff#'\	.
8A/	8AA/	8gg\ 8ee'\	.
8rc	8rEEyy	8ee\J 8cc#'\	.
=13	=13	=13	=13
8D/	8DD/	8aa\L 8ff#'\	.
8rc	8rEEyy	(16ff#\L 16dd\	.
.	.	16gg\JJ 16ee\)	.
8F#/	8FF#/	8ff#\L 8dd'\	.
8rc	8rEEyy	8aa\ 8ff#'\	.
8A/	8AA/	8gg\ 8ee'\	.
8rc	8rEEyy	8ee\J 8cc#'\	.
!!LO:LB:g=original
=14	=14	=14	=14
.	.	(>16qqdd/LL	.
.	.	16qqff#/JJ	.
4D/	4DD/	16aa\LL	.
.	.	16gg\	.
.	.	16ff#\	.
.	.	16ee\JJ	.
*v	*v	*	*
16d\LL	16dd\LL	.
16c#\	16cc#\	.
16B\	16b\	.
16A\JJ	16a\JJ	.
16G\LL	16g/LL	.
16F#\	16f#/	.
16E\	16e/	.
16D\JJ	16d/JJ)	.
=15	=15	=15
8F#/L 8D/ 8AA/	8a/L	.
16F#/L 16D/ 16AA/	16a/L	.
16F#/JJ 16D/ 16AA/	16b/JJ	.
8F#/L 8D/ 8AA/	8a/L	.
8F#/ 8D/ 8AA/	8a/	.
8G/ 8E/ 8AA/	8b/	.
8G/J 8E/ 8AA/	8cc#/J	.
=16	=16	=16
8F#\L 8D\	4dd\	.
8A\J 8F#\	.	.
8F#\ 8D\	8r	.
8r	16cc#\LL	.
.	16dd\JJ	.
4r	16cc#\LL	.
.	16dd\	.
.	16cc#\	.
.	16dd\JJ	.
=17	=17	=17
8D/L 8BB/	4ee\	.
8F#/J 8D/	.	.
8D/ 8BB/	8dd\	.
8r	16cc#\LL	.
.	16dd\JJ	.
4r	16cc#\LL	.
.	16dd\	.
.	16cc#\	.
.	16dd\JJ	.
!!LO:PB:g=original
=18	=18	=18
8B\L 8G\	4ff#\	.
8e\J 8B\	.	.
8B\ 8G\	8ee\L	.
8r	16ee\L	.
.	16ff#\JJ	.
4r	16gg\LL	.
.	16ff#\	.
.	16gg\	.
.	16ee\JJ	.
=19	=19	=19
*tremolo	*	*
8A\L	8dd\	.
8f#\ 8d\	4dd\	.
8A\	.	.
8f#\ 8dJ\	16cc#\LL	.
*Xtremolo	*	*
.	16dd\JJ	.
8A\L	8ee\L	.
8e\J 8c#\	8cc#\J	.
*clefG2	*	*
=20	=20	=20
8f#/L 8d/	4dd\	.
8a/J 8f#/	.	.
8f#/ 8d/	8r	.
8r	16ee\LL 16cc#\	.
.	16ff#\JJ 16dd\	.
4r	16ee\LL 16cc#\	.
.	16ff#\ 16dd\	.
.	16ee\ 16cc#\	.
.	16ff#\JJ 16dd\	.
=21	=21	=21
8d/L 8A/	4gg\ 4ee\	.
8f#/J 8d/	.	.
8d/ 8A/	8ff#\ 8dd\	.
8r	16ee\LL 16cc#\	.
.	16ff#\JJ 16dd\	.
4r	16ee\LL 16cc#\	.
.	16ff#\ 16dd\	.
.	16ee\ 16cc#\	.
.	16ff#\JJ 16dd\	.
*clefF4	*	*
!!LO:LB:g=original
=22	=22	=22
8B\L 8G\	8.aa\L 8.ff#\	.
8e\J 8B\	.	.
.	16gg\Jk 16ee\	.
8B\ 8G\	8gg\L 8ee\	.
8r	16gg\L 16ee\	.
.	16ff#\JJ 16dd\	.
4r	16ee\LL 16cc#\	.
.	16dd\ 16b\	.
.	16cc#\ 16a\	.
.	16b\JJ 16g\	.
=23	=23	=23
*tremolo	*	*
8F#/ 8D/ 8AA/L	8a/ 8f#/	.
8F#/ 8D/ 8AA/	16a/LL	.
.	16b/JJ	.
8F#/ 8D/ 8AA/	8a/L	.
8F#/ 8D/ 8AA/J	8a/	.
8G/ 8E/ 8AA/	8b/	.
8G/ 8E/ 8AA/	8cc#/J	.
=24	=24	=24
*^	*	*
8rc	4D\	16dd\LL	.
.	.	16ff#\	.
8d/ 8F#/	.	16ee\	.
.	.	16dd\JJ	.
8rc	4D\	16ee\LL	.
.	.	16gg\	.
8c#/ 8G/	.	16ff#\	.
.	.	16ee\JJ	.
8rc	4D\	16ff#\LL	.
.	.	16aa\	.
8cn/ 8A/	.	16gg\	.
.	.	16ff#\JJ	.
=25	=25	=25	=25
4B/	4G\	8gg\	.
*	*	*^	*
.	.	4b/	4g\	.
4rc	4rEEyy	.	.	.
*	*	*v	*v	*
.	.	16cc#\LL 16a\	.
.	.	16dd\JJ 16b\	.
4rc	4rEEyy	16ee\LL 16cc#\	.
.	.	16ff#\ 16dd\	.
.	.	16gg\ 16ee\	.
.	.	16aa\JJ 16ff#\	.
!!LO:LB:g=original
=26	=26	=26	=26
4G/	4GG/	8bb\L 8gg\	.
.	.	8aa\ 8ff#\	.
4rc	4rEEyy	8gg\ 8ee\	.
.	.	8ff#\J 8dd\	.
4rc	4rEEyy	16ee\LL 16cc#\	.
.	.	16dd\ 16b\	.
.	.	16cc#\ 16a\	.
.	.	16b\JJ 16g\	.
*v	*v	*	*
=27	=27	=27
8AA\L	8a/ 8f#/	.
8F#\ 8D\	4a/ 4f#/	.
8AA\	.	.
8F#\J 8D\	16a\LL	.
.	16cc#\JJ	.
*Xtremolo	*	*
8AA\L	16b\LL	.
.	16dd\	.
8G\J 8E\	16cc#\	.
.	16ee\JJ	.
=28	=28	=28
8F#\L 8D\	8ee\	.
16A\L 16F#\ 16D\	4a/	.
16A\JJ 16F#\ 16D\	.	.
8A\L 8F#\ 8D\	.	.
8A\ 8F#\ 8D\	16dd\LL	.
.	16ff#\JJ	.
8A\ 8E\ 8AA\	16aa\LL	.
.	16gg\	.
8A\J 8E\ 8AA\	16ee\	.
.	16cc#\JJ	.
=29	=29	=29
8A\L 8F#\ 8D\	8dd\L	.
16A\L 16G\ 16D\	16gg\L 16ee\ 16cc#\	.
16A\JJ 16G\ 16D\	16ee\JJ	.
4A\ 4G\ 4D\	4ee\ 4cc#\	.
8F#\ 8D\	8dd\	.
8r	8r	.
!	!LO:TX:b:t=V&colon;(erte) S&colon;(egue) Trio	!
!!LO:PB:g=original
=30:||:	=30:||:	=30:||:
*C	*C	*C
*k[f#]	*k[f#]	*
*G:	*G:	*
*M3/4	*M3/4	*
!	!LO:TX:a:t=Trio.	!
8r	8dd\	.
=31	=31	=31
*tremolo	*	*
8B\ 8G\L	8bb\ 8gg'\	.
8D\	4bb\ 4gg'\	.
8B\ 8G\	.	.
8D\	8bb\L 8gg'\	.
8B\ 8G\	8bb\ 8gg'\	.
8D\J	8bb\J 8gg'\	.
=32	=32	=32
8B\ 8G\L	16ddd\LL 16bb\	.
.	16ccc\ 16aa\	.
8D\	16ddd\ 16bb\	.
.	16eee\JJ 16ccc\	.
8B\ 8G\	4.ddd\ 4.bb\	.
8D\	.	.
8B\ 8G\	.	.
8D\J	8ddd\ 8bb\	.
=33	=33	=33
!	!LO:TUP:a:problem=klamra łukowa	!
!	!LO:TUP:a	!
8A\L 8F#\	12ccc\L	.
.	12ddd\	.
8D\J	.	.
.	12ccc\J	.
!	!LO:TUP:a:problem=klamra łukowa	!
!	!LO:TUP:a	!
8B\L 8G\	12bb\L	.
.	12ccc\	.
8D\J	.	.
.	12bb\J	.
8c\L 8A\	8aa\L 8ff#\	.
8D\J	8ddd\J	.
!!LO:LB:g=original
=34	=34	=34
!	!LO:TUP:a:problem=klamra łukowa	!
8B\L 8G\	12bb\L 12gg\	.
.	12ccc\	.
8D\J	.	.
.	12bb\J	.
!	!LO:TUP:a:problem=klamra łukowa	!
8c\L 8A\	12aa\L 12ff#\	.
.	12bb\	.
8D\J	.	.
.	12aa\J	.
8B\L 8G\	8gg\L	.
8D\J	8dd\J	.
=35	=35	=35
*tremolo	*	*
8B\ 8G\L	8bb\ 8gg\	.
8D\	4bb\ 4gg'\	.
8B\ 8G\	.	.
8D\	8bb\L 8gg'\	.
8B\ 8G\	8bb\ 8gg'\	.
8D\J	8bb\J 8gg'\	.
=36	=36	=36
8B\ 8G\L	(16bb\LL 16gg\	.
.	16aa\ 16ff#\	.
8D\	16bb\ 16gg\	.
.	16ccc\JJ 16aa\)	.
8B\ 8G\	4.ddd\ 4.bb\	.
8D\	.	.
8B\ 8G\	.	.
8D\J	8ddd\ 8bb\	.
=37	=37	=37
!	!LO:TUP:a:problem=klamra łukowa	!
8A\L 8F#\	12ccc\L	.
.	12ddd\	.
8D\J	.	.
.	12ccc\J	.
!	!LO:TUP:a:problem=klamra łukowa	!
8B\L 8G\	12bb\L 12gg\	.
.	12ccc\	.
8D\J	.	.
.	12bb\J	.
8c\L 8A\	8aa\L 8ff#\	.
8D\J	8ddd\J	.
=38	=38	=38
8B\ 8G\	8gg\L	.
8F#\L	(16bb\L 16ff#\	.
.	16aa\JJ 16ee\)	.
8G\	4aa\ 4cc\	.
8D\J	.	.
8GG/	8gg\ 8b\	.
8r	8r	.
!!LO:LB:g=original
=39:|!|:	=39:|!|:	=39:|!|:
*D	*D	*D
8r	8dd\	.
=40	=40	=40
8c\ 8A\L	8aa\	.
8D\	4aa^<\	.
8c\ 8A\	.	.
8D\	16gg#X\LL	.
.	16aa\JJ	.
8c\ 8A\	16gg#\LL	.
.	16aa\	.
8D\J	16ccc\	.
.	16aa\JJ	.
=41	=41	=41
*rep	*	*
8c\ 8A\L	4ff#\	.
8D\	.	.
8c\ 8A\	4dd\	.
8D\	.	.
8c\ 8A\	8.ee\L	.
8D\J	.	.
.	16dd\Jk	.
*Xrep	*	*
=42	=42	=42
8B\ 8G\L	8ggn\	.
8D\	4gg^<\	.
8B\ 8G\	.	.
8D\	16ff#\LL	.
.	16gg\JJ	.
8B\ 8G\	16bb\LL	.
.	16gg\	.
8D\J	16eee\	.
.	16ddd\JJ	.
=43	=43	=43
.	16qqddd/ 16qqbb/	.
*	*2\right	*
8A\ 8F#\L	2aa\	.
8D\	.	.
8A\ 8F#\	.	.
8D\	.	.
8A\ 8F#\	8.dd\L	.
8D\J	.	.
.	16ff#\Jk	.
=44	=44	=44
8c\ 8A\L	4aa\	.
8D\	.	.
!	!LO:N:vis=4	!
8c\ 8A\	4.aa^<\	.
8D\	.	.
8c\ 8A\	.	.
8D\J	16gg#X\LL	.
.	16aa\JJ	.
!!LO:LB:g=original
=45	=45	=45
!LO:N:vis=2	!	!
8c\ 8A\L	4ff#\	.
!LO:N:vis=2	!	!
8D\	.	.
8c\ 8A\	4dd\	.
8D\	.	.
8c\ 8A\	8.dd\L	.
8D\J	.	.
.	16dd\Jk	.
=46	=46	=46
8B\ 8G\L	8gg\	.
8D\	4gg\	.
8B\ 8G\	.	.
8D\	16ff#\LL	.
.	16gg\JJ	.
8B\ 8G\	16bb\LL	.
.	16gg\	.
8D\J	16eee\	.
.	16ddd\JJ	.
=47	=47	=47
.	8qbb/	.
8A\ 8F#\L	2aa\	<
8D\	.	.
8A\ 8F#\	.	.
8D\J	.	.
8A#X\L 8F#\	4aa#X\	[>
8D\J	.	]
=48	=48	=48
8B\ 8G\L	8bb\ 8gg\	.
8D\	4bb\ 4gg\	.
8B\ 8G\	.	.
8D\	8bb\L 8gg\	.
8B\ 8G\	8bb\ 8gg\	.
8D\J	8bb\J 8gg\	.
=49	=49	=49
8B\ 8G\L	16bb\LL 16gg\	.
.	16aa\ 16ff#\	.
8D\	16bb\ 16gg\	.
.	16ccc\JJ 16aa\	.
8B\ 8G\	4.ddd\ 4.bb\	.
8D\	.	.
8B\ 8G\	.	.
8D\J	8ddd\ 8bb\	.
!!LO:PB:g=original
=50	=50	=50
!	!LO:TUP:a:problem=klamra łukowa	!
8A\L 8F#\	12ccc\L	.
.	12ddd\	.
8D\J	.	.
.	12ccc\J	.
!	!LO:TUP:a:problem=klamra łukowa	!
8B\L 8G\	12bb\L 12gg\	.
.	12ccc\	.
8D\J	.	.
.	12bb\J	.
8c\L 8G\	8aa\L 8ff#\	.
8D\J	8bb\J	.
=51	=51	=51
!	!LO:TUP:a:problem=klamra łukowa	!
8B\L 8G\	12bb\L 12gg\	.
.	12ccc\	.
8D\J	.	.
.	12bb\J	.
!	!LO:TUP:a:problem=klamra łukowa	!
8c\L 8A\	12aa\L 12ff#\	.
.	12bb\	.
8D\J	.	.
.	12aa\J	.
8B\L 8G\	8gg\L	.
8D\J	8dd\J	.
=52	=52	=52
8B\ 8G\L	8bb\ 8gg'\	.
8D\	4bb\ 4gg'\	.
8B\ 8G\	.	.
8D\	8bb\L 8gg'\	.
8B\ 8G\	8bb\ 8gg'\	.
8D\J	(16bb\L 16gg\	.
.	16ccc\JJ 16aa\)	.
=53	=53	=53
8B\ 8G\L	4ddd\ 4bb\ 4gg\	.
8D\	.	.
8B\ 8G\	4ggg^<\	.
8D\	.	.
*	*Xtuplet	*
8B\ 8G\	12fff#'\L	.
.	12eee'\	.
8D\J	.	.
.	12ddd'\J	.
!!LO:LB:g=original
=54	=54	=54
8A\L 8F#\	16ccc\LL	.
.	16eee\	.
8D\J	16ddd\	.
.	16ccc\JJ	.
8B\L 8G\	16bb\LL	.
.	16ddd\	.
8D\J	16ccc\	.
.	16bb\JJ	.
8c\L 8F#\	16aa\LL	.
.	16ccc\	.
8D\J	16bb\	.
.	16aa\JJ	.
=55	=55	=55
8B\L 8G\	16gg\LL	.
.	16bb\	.
8c\J 8D\	16aa\	.
.	16ff#\JJ	.
4c\ 4A\ 4D\	4aa\ 4ff#\	.
8B\ 8G\	8gg\ 8ee\	.
8r	8r	.
!LO:TX:a:t=Pollo&colon; Da Capo	!	!
==:||	==:||	==:||
*-	*-	*-
!!!system-decoration: [s1,s2]
!!!RDF**kern: > = above
!!!RDF**kern: < = below
!!!RDF**dynam: p = po
!!!RDF**dynam: f = fo
!!!EED: Leszek Kubiak
!!!EEV: 2020-11-30
!!!ENC: Marta Chmielewska
!!!END: 2020-06-09
!!!YEC: Copyright 2022 Narodowy Instytut Fryderyka Chopina (https://polishscores.org)
!!!YEM: License CC-BY-4.0 (https://creativecommons.org/licenses/by/4.0)
